X:83
T:T052- Paddy O'Carrol
S:Riley's Flute Melodies, II (1818-20)
Q:1/4=120
L:1/8
M:6/8
K:G
d3/4c/4|BGG {B/}AGG|BGG {B/}AGG|GBd gdB|Ad^c =cBA|BGG {B/}AGG|\
BGG {B/}AGG|GBe gdc|B3/2c/2AG2::g3/4a/4|\
bg{a/g/f/}g af{g/f/e/}^f|gfe dcB|bg{a/g/f/}g af{g/f/e/}^f|\
gec' d'2d'3/4=c'/4|bgg aff|gfe dcB|GBd gdc|B3/2c/2AG2:|]

